X: 1
T: The Battle Of Sheriffmuir
R: jig
M: 6/8
L: 1/8
K: Gmaj
D|:G>FE E>DE|G3 G2 G|BAG cBc|d3 d2 g|
bag gfe|d>cB cde|dcB AGA|1 G3 G2 D:|2 G3 G2 B||
|:dcB AGA|G3 G2 d|gfe dcB|A3 A2 g|
bag gfe|d>cB cde|dcB AGA|1 G3 G2 B:|2 G3 G2 d||
|:g>dB g>dB|d3 d2 d|gfe dcB|A3 A2 g|
bag gfe|d>cB cde|dcB AGA|1 G3 G2 d:|2 G3 G3||

